src/assets/heart.svg

<svg width="23" height="20" viewBox="0 0 23 20" fill="none" xmlns="http://www.w3.org/2000/svg">
<path d="M22.25 4.46875C22.1239 3.9753 21.9293 3.50194 21.6718 3.0625C21.4245 2.60536 21.1083 2.18902 20.7343 1.82812C20.1921 1.28771 19.55 0.857859 18.8437 0.562499C17.4221 -0.020955 15.8278 -0.020955 14.4062 0.562499C13.7386 0.845059 13.1253 1.2416 12.5937 1.73437L12.5156 1.82812L11.5 2.84375L10.4843 1.82812L10.4062 1.73437C9.87456 1.2416 9.26125 0.845059 8.5937 0.562499C7.17207 -0.020955 5.57783 -0.020955 4.1562 0.562499C3.44992 0.857859 2.80781 1.28771 2.26558 1.82812C1.52396 2.54973 0.998968 3.4644 0.749951 4.46875C0.617474 4.97878 0.554405 5.50435 0.562451 6.03125C0.562451 6.52656 0.624951 7.02031 0.749951 7.5C0.880941 7.98444 1.0698 8.45135 1.31245 8.89062C1.57451 9.3422 1.89498 9.75724 2.26558 10.125L11.5 19.3594L20.7343 10.125C21.1046 9.76094 21.4218 9.34375 21.6718 8.89062C22.1793 8.0236 22.4438 7.03585 22.4375 6.03125C22.4456 5.50435 22.3825 4.97877 22.25 4.46875ZM20.6875 7.01562C20.5003 7.72956 20.1285 8.38163 19.6093 8.90625L11.4687 17.0312L3.32808 8.90625C3.0628 8.63909 2.83185 8.33991 2.64058 8.01562C2.46059 7.69481 2.31899 7.35392 2.2187 7C2.13864 6.64612 2.09673 6.28468 2.0937 5.92187C2.09582 5.54869 2.13772 5.1768 2.2187 4.8125C2.31605 4.45756 2.45779 4.11632 2.64058 3.79687C2.82808 3.46875 3.05933 3.17187 3.32808 2.90625C3.72948 2.51022 4.20104 2.19232 4.7187 1.96875C5.76185 1.55144 6.92555 1.55144 7.9687 1.96875C8.48433 2.18281 8.94995 2.49687 9.3437 2.89062L11.4687 5.03125L13.5937 2.89062C13.9872 2.49618 14.4544 2.18294 14.9687 1.96875C16.0118 1.55144 17.1756 1.55144 18.2187 1.96875C18.7359 2.19219 19.2078 2.51094 19.6093 2.90625C19.8812 3.16406 20.1093 3.46406 20.2812 3.79687C20.6431 4.4351 20.8316 5.15694 20.8281 5.89062C20.8493 6.26816 20.8178 6.64681 20.7343 7.01562H20.6875Z" fill="#574AE8"/>
</svg>

<svg width="23" height="20" fill="none" xmlns="http://www.w3.org/2000/svg"><path d="M22.25 4.469a5.451 5.451 0 0 0-.578-1.407 5.063 5.063 0 0 0-.938-1.234 5.906 5.906 0 0 0-1.89-1.266 5.844 5.844 0 0 0-4.438 0 6.25 6.25 0 0 0-1.812 1.172l-.078.094L11.5 2.844l-1.016-1.016-.078-.094A6.25 6.25 0 0 0 8.594.562a5.844 5.844 0 0 0-4.438 0 5.906 5.906 0 0 0-1.89 1.266A5.547 5.547 0 0 0 .75 4.468a5.86 5.86 0 0 0-.188 1.563c0 .496.063.99.188 1.469.13.484.32.951.562 1.39.263.452.583.867.954 1.235l9.234 9.234 9.234-9.234c.37-.364.688-.781.938-1.234a5.59 5.59 0 0 0 .765-2.86 5.856 5.856 0 0 0-.187-1.562Zm-1.563 2.547a4.203 4.203 0 0 1-1.078 1.89l-8.14 8.125-8.14-8.125a4.53 4.53 0 0 1-.688-.89A4.688 4.688 0 0 1 2.219 7a5.078 5.078 0 0 1-.125-1.078 5.25 5.25 0 0 1 .125-1.11c.097-.354.239-.696.422-1.015.187-.328.418-.625.687-.89a4.547 4.547 0 0 1 1.39-.938 4.375 4.375 0 0 1 3.25 0c.516.214.982.528 1.376.922l2.125 2.14 2.125-2.14a4.25 4.25 0 0 1 1.375-.922 4.375 4.375 0 0 1 3.25 0c.517.223.989.542 1.39.937.272.258.5.558.672.89.362.64.55 1.36.547 2.095.021.377-.01.756-.094 1.125h-.047Z" fill="#574AE8"/></svg>
